Newaita-dark/mimetypes/22/payment-card-diners-club.svg

<svg height="22pt" viewBox="0 0 22 22" width="22pt" xmlns="http://www.w3.org/2000/svg" xmlns:xlink="http://www.w3.org/1999/xlink"><linearGradient id="a" gradientUnits="userSpaceOnUse" x1="11.3699116" x2="11.3699116" y1="17.90894815" y2="18.81854134324"><stop offset="0" stop-opacity=".27451"/><stop offset="1" stop-opacity="0"/></linearGradient><linearGradient id="b"><stop offset="0" stop-opacity=".313725"/><stop offset=".222222" stop-opacity=".27451"/><stop offset="1" stop-opacity="0"/></linearGradient><radialGradient id="c" cx="450.90894" cy="189.57936" gradientTransform="matrix(.00000012 -.0537161 -.0966889 -.00000007 36.749414 42.357404)" gradientUnits="userSpaceOnUse" r="21.166656" xlink:href="#b"/><radialGradient id="d" cx="450.90894" cy="189.57936" gradientTransform="matrix(-.00000012 .0537161 .0966889 .00000007 -14.919205 -6.53953)" gradientUnits="userSpaceOnUse" r="21.166656" xlink:href="#b"/><radialGradient id="e" cx="450.90894" cy="189.57936" gradientTransform="matrix(-.00000012 -.0537161 .0966889 -.00000007 -14.919205 42.357404)" gradientUnits="userSpaceOnUse" r="21.166656" xlink:href="#b"/><radialGradient id="f" cx="450.90894" cy="189.57936" gradientTransform="matrix(.00000012 .0537161 -.0966889 .00000007 36.749413 -6.53953)" gradientUnits="userSpaceOnUse" r="21.166656" xlink:href="#b"/><linearGradient id="g" gradientUnits="userSpaceOnUse" x1="10.9151166" x2="10.9151166" y1="21.09252153649" y2="1.08147429324"><stop offset="0" stop-color="#bdbdbd"/><stop offset="1" stop-color="#e0e0e0"/></linearGradient><linearGradient id="h" gradientUnits="userSpaceOnUse" x1="960" x2="960" y1="1575.1182" y2="375.1181"><stop offset="0" stop-color="#42a5f5"/><stop offset="1" stop-color="#64b5f6"/></linearGradient><path d="m3.183594 17.910156h15.464844v.910156h-15.464844zm0 0" fill="url(#a)"/><path d="m18.648438 17.910156h1.816406v-.910156h-1.816406zm0 0" fill="url(#c)"/><path d="m3.183594 17.910156h-1.820313v.910156h1.820313zm0 0" fill="url(#d)"/><path d="m3.183594 17.910156h-1.820313v-.910156h1.820313zm0 0" fill="url(#e)"/><path d="m18.648438 17.910156h1.816406v.910156h-1.816406zm0 0" fill="url(#f)"/><path d="m2.730469 4.265625h16.371093c.503907 0 .910157.40625.910157.910156v11.824219c0 .5-.40625.910156-.910157.910156h-16.371093c-.503907 0-.910157-.410156-.910157-.910156v-11.824219c0-.503906.40625-.910156.910157-.910156zm0 0" fill="url(#g)"/><path d="m2.730469 4.265625c-.503907 0-.910157.40625-.910157.910156v.226563c0-.503906.40625-.910156.910157-.910156h16.371093c.503907 0 .910157.40625.910157.910156v-.226563c0-.503906-.40625-.910156-.910157-.910156zm0 0" fill="#fff" fill-opacity=".588235"/><path d="m1.820312 16.78125v.21875c0 .503906.40625.910156.910157.910156h16.371093c.503907 0 .910157-.40625.910157-.910156v-.21875c0 .503906-.40625.90625-.910157.90625h-16.371093c-.503907 0-.910157-.402344-.910157-.90625zm0 0" fill-opacity=".235294"/><g stroke="#212121" stroke-linecap="round" stroke-linejoin="round"><path d="m63.539387-115.736752h380.96362c11.726153 0 21.179795 9.453643 21.179795 21.179796v275.155542c0 11.635252-9.453642 21.179795-21.179795 21.179795h-380.96362c-11.726153 0-21.179796-9.544543-21.179796-21.179795v-275.155542c0-11.726153 9.453643-21.179796 21.179796-21.179796zm0 0" fill="none" stroke-width="3" transform="matrix(.0429729 0 0 .0429729 0 9.239163)"/><path d="m959.908345 655.170084c-177.277275 0-319.854928 142.577653-319.854928 319.854928s142.577653 320.198489 319.854928 320.198489 320.198489-142.921214 320.198489-320.198489-142.921214-319.854928-320.198489-319.854928zm-99.976137 101.693941v436.665535c-82.798107-37.791667-139.829169-121.276895-139.829169-218.504548 0-97.227652 57.031062-180.36932 139.829169-218.160987zm199.952275 0c82.798107 37.791667 140.172729 120.933335 140.172729 218.160987 0 97.227653-57.374622 180.712881-140.172729 218.504548zm0 0" fill="url(#h)" stroke-width="11.338583" transform="scale(.0113699)"/></g></svg>

<?xml version="1.0" encoding="UTF-8"?>
<svg xmlns="http://www.w3.org/2000/svg" xmlns:xlink="http://www.w3.org/1999/xlink" width="22pt" height="22pt" viewBox="0 0 22 22" version="1.1">
<defs>
<linearGradient id="linear0" gradientUnits="userSpaceOnUse" x1="254" y1="233.5" x2="254" y2="254.66667" gradientTransform="matrix(0.0429729,0,0,0.0429729,0.454795,7.874776)">
<stop offset="0" style="stop-color:rgb(0%,0%,0%);stop-opacity:0.27451;"/>
<stop offset="1" style="stop-color:rgb(0%,0%,0%);stop-opacity:0;"/>
</linearGradient>
<radialGradient id="radial0" gradientUnits="userSpaceOnUse" cx="450.90894" cy="189.57936" fx="450.90894" fy="189.57936" r="21.166656" gradientTransform="matrix(0.000000119742,-0.0537161,-0.0966889,-0.0000000698078,36.749414,42.357404)">
<stop offset="0" style="stop-color:rgb(0%,0%,0%);stop-opacity:0.313725;"/>
<stop offset="0.222222" style="stop-color:rgb(0%,0%,0%);stop-opacity:0.27451;"/>
<stop offset="1" style="stop-color:rgb(0%,0%,0%);stop-opacity:0;"/>
</radialGradient>
<radialGradient id="radial1" gradientUnits="userSpaceOnUse" cx="450.90894" cy="189.57936" fx="450.90894" fy="189.57936" r="21.166656" gradientTransform="matrix(-0.000000119742,0.0537161,0.0966889,0.0000000698078,-14.919205,-6.53953)">
<stop offset="0" style="stop-color:rgb(0%,0%,0%);stop-opacity:0.313725;"/>
<stop offset="0.222222" style="stop-color:rgb(0%,0%,0%);stop-opacity:0.27451;"/>
<stop offset="1" style="stop-color:rgb(0%,0%,0%);stop-opacity:0;"/>
</radialGradient>
<radialGradient id="radial2" gradientUnits="userSpaceOnUse" cx="450.90894" cy="189.57936" fx="450.90894" fy="189.57936" r="21.166656" gradientTransform="matrix(-0.000000119742,-0.0537161,0.0966889,-0.0000000698078,-14.919205,42.357404)">
<stop offset="0" style="stop-color:rgb(0%,0%,0%);stop-opacity:0.313725;"/>
<stop offset="0.222222" style="stop-color:rgb(0%,0%,0%);stop-opacity:0.27451;"/>
<stop offset="1" style="stop-color:rgb(0%,0%,0%);stop-opacity:0;"/>
</radialGradient>
<radialGradient id="radial3" gradientUnits="userSpaceOnUse" cx="450.90894" cy="189.57936" fx="450.90894" fy="189.57936" r="21.166656" gradientTransform="matrix(0.000000119742,0.0537161,-0.0966889,0.0000000698078,36.749413,-6.53953)">
<stop offset="0" style="stop-color:rgb(0%,0%,0%);stop-opacity:0.313725;"/>
<stop offset="0.222222" style="stop-color:rgb(0%,0%,0%);stop-opacity:0.27451;"/>
<stop offset="1" style="stop-color:rgb(0%,0%,0%);stop-opacity:0;"/>
</radialGradient>
<linearGradient id="linear1" gradientUnits="userSpaceOnUse" x1="254" y1="275.83334" x2="254" y2="-189.83333" gradientTransform="matrix(0.0429729,0,0,0.0429729,0,9.239163)">
<stop offset="0" style="stop-color:rgb(74.117647%,74.117647%,74.117647%);stop-opacity:1;"/>
<stop offset="1" style="stop-color:rgb(87.843137%,87.843137%,87.843137%);stop-opacity:1;"/>
</linearGradient>
<linearGradient id="linear2" gradientUnits="userSpaceOnUse" x1="960" y1="1575.1182" x2="960" y2="375.1181" >
<stop offset="0" style="stop-color:rgb(25.882353%,64.705882%,96.078431%);stop-opacity:1;"/>
<stop offset="1" style="stop-color:rgb(39.215686%,70.980392%,96.470588%);stop-opacity:1;"/>
</linearGradient>
</defs>
<g id="surface1">
<path style=" stroke:none;fill-rule:nonzero;fill:url(#linear0);" d="M 3.183594 17.910156 L 18.648438 17.910156 L 18.648438 18.820312 L 3.183594 18.820312 Z M 3.183594 17.910156 "/>
<path style=" stroke:none;fill-rule:nonzero;fill:url(#radial0);" d="M 18.648438 17.910156 L 20.464844 17.910156 L 20.464844 17 L 18.648438 17 Z M 18.648438 17.910156 "/>
<path style=" stroke:none;fill-rule:nonzero;fill:url(#radial1);" d="M 3.183594 17.910156 L 1.363281 17.910156 L 1.363281 18.820312 L 3.183594 18.820312 Z M 3.183594 17.910156 "/>
<path style=" stroke:none;fill-rule:nonzero;fill:url(#radial2);" d="M 3.183594 17.910156 L 1.363281 17.910156 L 1.363281 17 L 3.183594 17 Z M 3.183594 17.910156 "/>
<path style=" stroke:none;fill-rule:nonzero;fill:url(#radial3);" d="M 18.648438 17.910156 L 20.464844 17.910156 L 20.464844 18.820312 L 18.648438 18.820312 Z M 18.648438 17.910156 "/>
<path style=" stroke:none;fill-rule:nonzero;fill:url(#linear1);" d="M 2.730469 4.265625 L 19.101562 4.265625 C 19.605469 4.265625 20.011719 4.671875 20.011719 5.175781 L 20.011719 17 C 20.011719 17.5 19.605469 17.910156 19.101562 17.910156 L 2.730469 17.910156 C 2.226562 17.910156 1.820312 17.5 1.820312 17 L 1.820312 5.175781 C 1.820312 4.671875 2.226562 4.265625 2.730469 4.265625 Z M 2.730469 4.265625 "/>
<path style=" stroke:none;fill-rule:nonzero;fill:rgb(100%,100%,100%);fill-opacity:0.588235;" d="M 2.730469 4.265625 C 2.226562 4.265625 1.820312 4.671875 1.820312 5.175781 L 1.820312 5.402344 C 1.820312 4.898438 2.226562 4.492188 2.730469 4.492188 L 19.101562 4.492188 C 19.605469 4.492188 20.011719 4.898438 20.011719 5.402344 L 20.011719 5.175781 C 20.011719 4.671875 19.605469 4.265625 19.101562 4.265625 Z M 2.730469 4.265625 "/>
<path style=" stroke:none;fill-rule:nonzero;fill:rgb(0%,0%,0%);fill-opacity:0.235294;" d="M 1.820312 16.78125 L 1.820312 17 C 1.820312 17.503906 2.226562 17.910156 2.730469 17.910156 L 19.101562 17.910156 C 19.605469 17.910156 20.011719 17.503906 20.011719 17 L 20.011719 16.78125 C 20.011719 17.285156 19.605469 17.6875 19.101562 17.6875 L 2.730469 17.6875 C 2.226562 17.6875 1.820312 17.285156 1.820312 16.78125 Z M 1.820312 16.78125 "/>
<path style="fill:none;stroke-width:3;stroke-linecap:round;stroke-linejoin:round;stroke:rgb(12.941176%,12.941176%,12.941176%);stroke-opacity:1;stroke-miterlimit:4;" d="M 63.539387 -115.736752 L 444.503007 -115.736752 C 456.22916 -115.736752 465.682802 -106.283109 465.682802 -94.556956 L 465.682802 180.598586 C 465.682802 192.233838 456.22916 201.778381 444.503007 201.778381 L 63.539387 201.778381 C 51.813234 201.778381 42.359591 192.233838 42.359591 180.598586 L 42.359591 -94.556956 C 42.359591 -106.283109 51.813234 -115.736752 63.539387 -115.736752 Z M 63.539387 -115.736752 " transform="matrix(0.0429729,0,0,0.0429729,0,9.239163)"/>
<path style="fill-rule:nonzero;fill:url(#linear2);stroke-width:11.338583;stroke-linecap:round;stroke-linejoin:round;stroke:rgb(12.941176%,12.941176%,12.941176%);stroke-opacity:1;stroke-miterlimit:4;" d="M 959.908345 655.170084 C 782.63107 655.170084 640.053417 797.747737 640.053417 975.025012 C 640.053417 1152.302287 782.63107 1295.223501 959.908345 1295.223501 C 1137.18562 1295.223501 1280.106834 1152.302287 1280.106834 975.025012 C 1280.106834 797.747737 1137.18562 655.170084 959.908345 655.170084 Z M 859.932208 756.864025 L 859.932208 1193.52956 C 777.134101 1155.737893 720.103039 1072.252665 720.103039 975.025012 C 720.103039 877.79736 777.134101 794.655692 859.932208 756.864025 Z M 1059.884483 756.864025 C 1142.68259 794.655692 1200.057212 877.79736 1200.057212 975.025012 C 1200.057212 1072.252665 1142.68259 1155.737893 1059.884483 1193.52956 Z M 1059.884483 756.864025 " transform="matrix(0.0113699,0,0,0.0113699,0,0)"/>
</g>
</svg>
